!!!COM: Fux, Johann Joseph
!!!OMD: Gradus ad Parnassum Exercise
!!!YEC: CC0 1.0 Universal (Public Domain). Mark Gotham and FourScoreAndMore.org waive all rights to this document.
**kern	**kern
*part2	*part1
*staff2	*staff1
*I"2	*I"1
*I'Pno	*I'Pno
!!LO:LB:g=z
*clefGv2	*clefGv2
*k[]	*k[]
!!LO:TX:omd:t=
*M2/2	*M2/2
=199	=199
!	!LO:TX:a:t=Fig. 41; Species&colon; 2; Modal final&colon; g; Cantus firmus&colon; Upper
2r	1G
2G/	.
=200	=200
2E/	1c
2F/	.
=201	=201
2G/	1B
2F/	.
=202	=202
2E/	1G
2D/	.
=203	=203
2C/	1c
2E/	.
=204	=204
2C/	1e
2c\	.
=205	=205
2B\	1d
2A/	.
!!LO:LB:g=z
=206	=206
2G/	1g
2B\	.
=207	=207
2c\	1e
2B\	.
=208	=208
2A/	1c
2G/	.
=209	=209
2F#X/	1d
2D/	.
=210	=210
2G/	1B
2BB/	.
=211	=211
2D/	1A
2F#X/	.
=212	=212
1G	1G
==	==
*-	*-
!!!software: music21 v.9.7.1
!!!software: music21 v.9.7.1
!!!software: MuseScore 3.4.2
!!!RDF**kern: > = above
!!!RDF**kern: < = below
